X:1
L:1/8
Q:1/4=120
M:4/4
K:A
""^Moderate."" (c/>B/) | AEEF A>Bcf | ec({c}BA) GB B(c/B/) | A>EEF A>Bcf | ecB>c A2 A :: (c/>d/) | 
 e(f/g/) ae fae>c | (d/f/e/d/) (c/e/d/c/) (c>d) B(c/>B/) | AEEF A>B!fermata!c!fermata!f | 
 ecB>c A2 A :|
